;FLAVOR:Marlin
;TIME:436
;Filament used: 0.111085m
;Layer height: 0.2
;MINX:191.376
;MINY:187.836
;MINZ:0.2
;MAXX:198.646
;MAXY:202.983
;MAXZ:9.6
;POSTPROCESSED
;Generated with Cura_SteamEngine 4.6.1
M140 S50
M105
M190 S50
M104 S200
M105
M109 S200
M82 ;absolute extrusion mode
M201 X500.00 Y500.00 Z100.00 E5000.00 ;Setup machine max acceleration
M203 X500.00 Y500.00 Z10.00 E50.00 ;Setup machine max feedrate
M204 P500.00 R1000.00 T500.00 ;Setup Print/Retract/Travel acceleration
M205 X8.00 Y8.00 Z0.40 E5.00 ;Setup Jerk
M220 S100 ;Reset Feedrate
M221 S100 ;Reset Flowrate

G28 ;Home

G92 E0 ;Reset Extruder
G1 Z2.0 F3000 ;Move Z Axis up
G1 X10.1 Y20 Z0.2 F5000.0 ;Move to start position
G1 X10.1 Y200.0 Z0.2 F1500.0 E15 ;Draw the first line
G1 X10.4 Y200.0 Z0.2 F5000.0 ;Move to side a little
G1 X10.4 Y20 Z0.2 F1500.0 E30 ;Draw the second line
G92 E0 ;Reset Extruder
G1 Z2.0 F3000 ;Move Z Axis up
G92 E0
G92 E0
G1 F2700 E-5
;LAYER_COUNT:50
;LAYER:0
M117 Lil_Corg_v 1/50
M107
;MESH:Lil_Corg_v2.stl
G0 F6000 X193.438 Y198.921 Z0.2
;TYPE:WALL-INNER
G1 F2700 E0
G1 F1154.1 X192.819 Y198.881 E0.02063
G1 X192.785 Y198.557 E0.03147
G1 X192.783 Y198.537 E0.03213
G1 X192.789 Y198.363 E0.03793
G1 X192.802 Y198.248 E0.04177
G1 X192.818 Y198.178 E0.04416
G1 X192.839 Y198.178 E0.04486
G1 X193.587 Y198.181 E0.06974
G1 X193.682 Y198.181 E0.0729
G1 X193.689 Y198.321 E0.07756
G1 X193.684 Y198.408 E0.08046
G1 X193.675 Y198.502 E0.0831
G1 X193.631 Y198.92 E0.09708
G1 X193.438 Y198.921 E0.1035
G0 F6000 X193.177 Y199.321
;TYPE:WALL-OUTER
G1 F1154.1 X192.462 Y199.32 E0.12728
G1 X192.382 Y198.55 E0.15303
G1 X192.389 Y198.34 E0.16001
G1 X192.408 Y198.177 E0.16547
G1 X192.437 Y198.05 E0.1698
G1 X192.467 Y197.97 E0.17265
G1 X192.494 Y197.916 E0.17465
G1 X192.558 Y197.835 E0.17809
G1 X192.591 Y197.812 E0.17943
G1 X192.642 Y197.786 E0.18133
G1 X192.692 Y197.778 E0.18301
G1 X193.813 Y197.781 E0.2203
G1 X193.918 Y197.799 E0.22384
G1 X193.965 Y197.834 E0.22579
G1 X194.019 Y197.905 E0.22876
G1 X194.041 Y197.954 E0.23054
G1 X194.069 Y198.05 E0.23387
G1 X194.08 Y198.11 E0.2359
G1 X194.09 Y198.317 E0.24279
G1 X194.082 Y198.449 E0.24719
G1 X193.992 Y199.319 E0.27628
G1 X193.429 Y199.321 E0.29501
G1 X193.175 Y199.305 E0.30347
G1 X193.177 Y199.321 E0.30401
G0 F6000 X192.847 Y198.881
G0 X193.225 Y199.708
G1 F1154.1 X193.28 Y199.884 E0.31014
G1 X193.93 Y199.884 E0.33176
G1 X193.844 Y200.67 E0.35806
G1 X193.324 Y200.671 E0.37535
G1 X193.362 Y201.235 E0.39416
G1 X193.78 Y201.235 E0.40806
G1 X193.689 Y202.004 E0.43381
G1 X192.763 Y202.004 E0.46461
G1 X192.675 Y201.234 E0.49039
G1 X193.084 Y201.235 E0.50399
G1 X193.135 Y200.67 E0.52286
G1 X192.609 Y200.671 E0.54036
G1 X192.523 Y199.885 E0.56665
G1 X193.19 Y199.885 E0.58884
G1 X193.225 Y199.708 E0.59484
G0 F6000 X193.479 Y200.267
;TYPE:SKIN
G1 F1154.1 X193.634 Y200.14 E0.60225
G1 X192.929 Y200.283 E0.62886
G1 X192.805 Y200.442 E0.63632
G0 F6000 X192.879 Y200.378
G0 X192.962 Y200.432
G0 X192.997 Y201.4
G0 X193.132 Y201.618
G1 F1154.1 X193.374 Y201.577 E0.64392
G1 X192.979 Y201.748 E0.65725
G0 F6000 X193.026 Y201.655
G0 X193.17 Y199.097
G0 X192.923 Y199.022
G0 X192.87 Y199.092
G1 F1154.1 X193.015 Y198.672 E0.66684
G1 X193.376 Y198.467 E0.67581
G0 F6000 X193.262 Y198.379
G1 F2700 E-4.32419
G0 F6000 X193.819 Y198.004
G0 X194.853 Y198.003
G0 X195.002 Y197.008
;TYPE:WALL-INNER
G1 F2700 E0.67581
G1 F1154.1 X194.975 Y196.93 E0.67856
G1 X194.964 Y196.899 E0.67965
G1 X194.945 Y196.863 E0.681
G1 X194.899 Y196.779 E0.68419
G1 X194.864 Y196.714 E0.68664
G1 X194.853 Y196.7 E0.68724
G1 X194.721 Y196.537 E0.69421
G1 X194.538 Y196.39 E0.70202
G1 X194.405 Y196.319 E0.70703
G1 X194.216 Y196.246 E0.71377
G1 X194.139 Y196.231 E0.71638
G1 X194.139 Y194.586 E0.7711
G1 X194.251 Y194.559 E0.77493
G1 X194.45 Y194.479 E0.78206
G1 X194.636 Y194.352 E0.78955
G1 X194.769 Y194.221 E0.79576
G1 X194.784 Y194.207 E0.79644
G1 X194.79 Y194.199 E0.79678
G1 X194.861 Y194.105 E0.80069
G1 X194.873 Y194.089 E0.80136
G1 X194.896 Y194.043 E0.80307
G1 X194.926 Y193.986 E0.80521
G1 X194.962 Y193.916 E0.80783
G1 X194.965 Y193.906 E0.80818
G1 X194.971 Y193.892 E0.80868
G1 X195 Y193.813 E0.81148
G1 X195.028 Y193.891 E0.81179
G1 X195.034 Y193.906 E0.81233
G1 X195.038 Y193.916
G1 X195.073 Y193.985 E0.81319
G1 X195.103 Y194.042 E0.81405
G1 X195.127 Y194.089 E0.81485
G1 X195.139 Y194.105 E0.81552
G1 X195.21 Y194.199 E0.81944
G1 X195.216 Y194.207 E0.81967
G1 X195.231 Y194.221 E0.82035
G1 X195.364 Y194.352 E0.82656
G1 X195.551 Y194.48 E0.8341
G1 X195.746 Y194.557 E0.84107
G1 X195.861 Y194.586 E0.84501
G1 X195.858 Y196.229 E0.89966
G1 X195.765 Y196.251 E0.90284
G1 X195.643 Y196.294 E0.90714
G1 X195.509 Y196.364 E0.91217
G1 X195.351 Y196.475 E0.91859
G1 X195.226 Y196.596 E0.92438
G1 X195.213 Y196.609 E0.92485
G1 X195.096 Y196.78 E0.93026
G1 X195.078 Y196.818 E0.93045
G1 X195.033 Y196.909 E0.93194
G1 X195.03 Y196.919
G1 X195.002 Y197.008 E0.93245
G1 F2700 E-4.06755
G0 F6000 X194.929 Y199.014
G0 X194.654 Y199.239
;TYPE:WALL-OUTER
G1 F2700 E0.93245
G1 F1154.1 X194.652 Y197.283 E0.99751
G1 X194.64 Y197.206 E1.0001
G1 X194.623 Y197.135 E1.00253
G1 X194.597 Y197.061 E1.00513
G1 X194.53 Y196.937 E1.00982
G1 X194.437 Y196.822 E1.01474
G1 X194.316 Y196.725 E1.0199
G1 X194.238 Y196.683 E1.02285
G1 X194.105 Y196.632 E1.02758
G1 X193.997 Y196.611 E1.03124
G1 X193.926 Y196.606 E1.03361
G1 X193.739 Y196.605 E1.03983
G1 X193.739 Y194.209 E1.11952
G1 X193.978 Y194.207 E1.12747
G1 X194.054 Y194.195 E1.13003
G1 X194.129 Y194.177 E1.1326
G1 X194.26 Y194.124 E1.1373
G1 X194.382 Y194.041 E1.1422
G1 X194.482 Y193.943 E1.14686
G1 X194.533 Y193.875 E1.14969
G1 X194.596 Y193.754 E1.15422
G1 X194.623 Y193.681 E1.15681
G1 X194.64 Y193.61 E1.15924
G1 X194.652 Y193.534 E1.1618
G1 X194.654 Y193.355 E1.16775
G1 X194.654 Y191.505 E1.22929
G1 X194.671 Y191.5 E1.22988
G1 X194.74 Y191.485 E1.23222
G1 X194.828 Y191.471 E1.23519
G1 X194.954 Y191.459 E1.2394
G1 X195.151 Y191.467 E1.24596
G1 X195.229 Y191.478 E1.24858
G1 X195.345 Y191.508 E1.25256
G1 X195.348 Y193.533 E1.31991
G1 X195.36 Y193.61 E1.3225
G1 X195.377 Y193.681 E1.32493
G1 X195.404 Y193.754 E1.32752
G1 X195.467 Y193.875 E1.33206
G1 X195.518 Y193.943 E1.33489
G1 X195.618 Y194.041 E1.33954
G1 X195.74 Y194.124 E1.34445
G1 X195.871 Y194.176 E1.34914
G1 X195.944 Y194.195 E1.35165
G1 X196.016 Y194.206 E1.35407
G1 X196.085 Y194.21 E1.35637
G1 X196.261 Y194.21 E1.36222
G1 X196.258 Y196.605 E1.44188
G1 X196.054 Y196.606 E1.44866
G1 X195.949 Y196.619 E1.45218
G1 X195.877 Y196.636 E1.45464
G1 X195.802 Y196.662 E1.45728
G1 X195.718 Y196.706 E1.46044
G1 X195.607 Y196.784 E1.46495
G1 X195.521 Y196.868 E1.46895
G1 X195.442 Y196.983 E1.47359
G1 X195.405 Y197.058 E1.47637
G1 X195.364 Y197.189 E1.48094
G1 X195.351 Y197.263 E1.48344
G1 X195.346 Y197.333 E1.48577
G1 X195.345 Y197.478 E1.49059
G1 X195.345 Y199.242 E1.54926
G1 X195.332 Y199.247 E1.54973
G1 X195.257 Y199.263 E1.55228
G1 X195.103 Y199.283 E1.55744
G1 X194.945 Y199.288 E1.5627
G1 X194.861 Y199.282 E1.5655
G1 X194.776 Y199.27 E1.56836
G1 X194.654 Y199.239 E1.57254
G0 F6000 X194.929 Y199.014
G0 X194.899 Y197.964
G0 X194.8 Y196.457
G0 X195.004 Y196.268
;TYPE:SKIN
G1 F1154.1 X194.998 Y196.26 E1.57288
G1 X194.754 Y196.063 E1.58331
G1 X194.529 Y195.949 E1.5917
G1 X194.529 Y194.867 E1.62768
G1 X194.635 Y194.825 E1.63148
G1 X194.884 Y194.655 E1.6415
G1 X195 Y194.541 E1.64691
G1 X195.116 Y194.654 E1.6523
G1 X195.367 Y194.827 E1.66244
G1 X195.471 Y194.868 E1.66616
G1 X195.468 Y195.945 E1.70198
G1 X195.306 Y196.03 E1.70806
G1 X195.102 Y196.173 E1.71635
G1 X195.004 Y196.268 E1.72089
G0 F6000 X194.689 Y195.82
G1 F1154.1 X194.748 Y195.879 E1.72366
G0 F6000 X195.29 Y195.856
G1 F1154.1 X194.689 Y195.254 E1.75196
G0 F6000 X194.863 Y194.863
G1 F1154.1 X195.309 Y195.309 E1.77293
G0 F6000 X195.749 Y195.31
G0 X195.691 Y194.782
G0 X195.063 Y193.651
G0 X194.946 Y193.532
;TYPE:SKIN
G1 F1154.1 X195 Y193.303 E1.78057
G1 X194.998 Y191.887 E1.82651
G1 X195.1 Y191.706 E1.83325
G0 F6000 X195.045 Y191.775
G0 X194.913 Y194.32
G0 X194.316 Y194.724
G0 X194.317 Y196.094
G0 X194.937 Y197.164
G0 X195.038 Y197.3
G1 F1154.1 X194.998 Y197.543 E1.84101
G1 X194.984 Y198.944 E1.88519
G1 X194.844 Y199.087 E1.8915
G1 F2700 E-3.1085
G0 F6000 X194.952 Y198.987
G0 X195.125 Y198.919
G0 X196.158 Y198.812
G0 X196.37 Y198.919
;TYPE:WALL-INNER
G1 F2700 E1.8915
G1 F1154.1 X196.325 Y198.491 E1.90581
G1 X196.314 Y198.385 E1.90935
G1 X196.31 Y198.243 E1.91408
G1 X196.316 Y198.18 E1.91618
G1 X196.423 Y198.18 E1.9191
G1 X197.16 Y198.181 E1.94362
G1 X197.181 Y198.181 E1.94432
G1 X197.212 Y198.356 E1.95023
G1 X197.217 Y198.532 E1.95608
G1 X197.217 Y198.541 E1.95638
G1 X197.215 Y198.561 E1.95705
G1 X197.178 Y198.919 E1.96902
G1 X197.169 Y198.919 E1.96932
G1 X196.37 Y198.919 E1.9959
G0 F6000 X196.009 Y199.319
;TYPE:WALL-OUTER
G1 F1154.1 X195.914 Y198.412 E2.02623
G1 X195.909 Y198.236 E2.03208
G1 X195.923 Y198.092 E2.0369
G1 X195.943 Y198.002 E2.03996
G1 X195.979 Y197.909 E2.04328
G1 X196.035 Y197.833 E2.04642
G1 X196.079 Y197.801 E2.04823
G1 X196.103 Y197.79 E2.04911
G1 X196.147 Y197.781 E2.0506
G1 X196.179 Y197.78 E2.05166
G1 X197.336 Y197.781 E2.09015
G1 X197.41 Y197.81 E2.09279
G1 X197.487 Y197.888 E2.09644
G1 X197.516 Y197.936 E2.0983
G1 X197.541 Y197.99 E2.10028
G1 X197.577 Y198.105 E2.10429
G1 X197.602 Y198.243 E2.10895
G1 X197.611 Y198.327 E2.11176
G1 X197.618 Y198.552 E2.11925
G1 X197.601 Y198.727 E2.1251
G1 X197.538 Y199.319 E2.1449
G1 X196.009 Y199.319 E2.19575
G0 F6000 X196.772 Y199.703
G1 F1154.1 X196.816 Y199.884 E2.20195
G1 X197.476 Y199.884 E2.2239
G1 X197.389 Y200.67 E2.2502
G1 X196.878 Y200.671 E2.2672
G1 X196.902 Y201.235 E2.28597
G1 X197.326 Y201.234 E2.30008
G1 X197.237 Y202.003 E2.32582
G1 X196.309 Y202.003 E2.35669
G1 X196.219 Y201.234 E2.38244
G1 X196.412 Y201.234 E2.38886
G1 X196.63 Y201.242 E2.39612
G1 X196.659 Y200.904 E2.4074
G1 X196.67 Y200.671 E2.41516
G1 X196.156 Y200.67 E2.43225
G1 X196.069 Y199.885 E2.45852
G1 X196.732 Y199.885 E2.48057
G1 X196.772 Y199.703 E2.48677
G0 F6000 X196.575 Y198.74
G0 X196.501 Y198.402
G0 X196.642 Y198.291
G0 X196.642 Y198.339
;TYPE:SKIN
G1 F1154.1 X197.036 Y198.733 E2.5053
G0 F6000 X197.054 Y198.783
G0 X196.928 Y199.061
G0 X196.946 Y200.058
G0 X197.096 Y200.208
;TYPE:SKIN
G1 F1154.1 X196.882 Y200.276 E2.51009
G1 X196.409 Y200.369 E2.52038
G1 X197.252 Y200.081 E2.53938
G0 F6000 X197.152 Y200.09
G0 X197.121 Y200.189
G0 X196.883 Y201.409
G0 X196.993 Y201.519
G1 F1154.1 X196.813 Y201.621 E2.54988
G1 X196.582 Y201.673 E2.5619
G0 F6000 X196.842 Y201.392
G1 F2700 E-2.4381
G0 F6000 X196.682 Y199.093
G0 X196.133 Y198.397
G0 X197.111 Y196.925
G0 X198.354 Y192.731
G0 X198.349 Y191.934
G0 X197.988 Y188.071
G0 X195.558 Y188.072
G0 X194.688 Y190.631
G0 X193.969 Y192.468
;TYPE:WALL-OUTER
G1 F2700 E2.5619
G1 F1154.1 X193.957 Y192.56 E2.56499
G1 X193.91 Y192.717 E2.57044
G1 X193.853 Y192.812 E2.57412
G1 X193.801 Y192.851 E2.57628
G1 X193.762 Y192.86 E2.57761
G1 X192.669 Y192.857 E2.61397
G1 X192.638 Y192.845 E2.61507
G1 X192.604 Y192.811 E2.61667
G1 X192.556 Y192.736 E2.61963
G1 X192.524 Y192.659 E2.62241
G1 X192.506 Y192.595 E2.62462
G1 X192.482 Y192.408 E2.63089
G1 X192.537 Y191.65 E2.65617
G1 X193.919 Y191.649 E2.70213
G1 X193.958 Y192.18 E2.71984
G1 X193.896 Y192.004 E2.72605
G1 X193.453 Y191.669 E2.74452
G1 X193.011 Y192.004 E2.76297
G1 X192.893 Y192.339 E2.77478
G1 X192.994 Y192.63 E2.78503
G1 X193.287 Y192.767 E2.79578
G1 X193.454 Y192.667 E2.80226
G1 X193.62 Y192.767 E2.8087
G1 X193.913 Y192.63 E2.81946
G1 X193.969 Y192.468 E2.82516
G0 F6000 X193.792 Y191.785
G0 X193.163 Y191.756
G0 X192.739 Y192.504
G0 X192.723 Y192.44
;TYPE:SKIN
G1 F1154.1 X192.718 Y192.152 E2.82867
G1 X192.764 Y191.916 E2.83159
G0 F6000 X192.722 Y191.85
G0 X193.163 Y191.756
G0 X193.163 Y190.963
G0 X193.658 Y190.918
G0 X193.874 Y191.083
;TYPE:WALL-OUTER
G1 F1154.1 X192.581 Y191.083 E2.8746
G1 X192.624 Y190.558 E2.89212
G1 X192.65 Y190.283 E2.90131
G1 X193.803 Y190.284 E2.93965
G1 X193.874 Y191.083 E2.96633
G0 F6000 X193.482 Y190.653
;TYPE:SKIN
G1 F1154.1 X193.609 Y190.498 E2.97735
G0 F6000 X193.228 Y190.682
G1 F1154.1 X192.985 Y190.722 E2.99201
G1 X192.833 Y190.853 E3.00396
G0 F6000 X193.104 Y190.583
G0 X193.531 Y190.403
G0 X193.531 Y189.598
G0 X193.75 Y189.718
;TYPE:WALL-OUTER
G1 F1154.1 X192.705 Y189.718 E3.03872
G1 X192.725 Y189.491 E3.04629
G1 X192.783 Y188.926 E3.06519
G1 X193.67 Y188.925 E3.09469
G1 X193.75 Y189.718 E3.1212
G0 F6000 X193.281 Y189.321
;TYPE:SKIN
G1 F1154.1 X193.071 Y189.394 E3.12834
G1 X193.435 Y189.193 E3.14169
G0 F6000 X193.207 Y189.426
G1 F2700 E-1.85831
G0 F6000 X193.626 Y189.605
G0 X196.374 Y189.606
G0 X196.435 Y189.518
G0 X196.25 Y189.719
;TYPE:WALL-OUTER
G1 F2700 E3.14169
G1 F1154.1 X196.33 Y188.926 E3.1682
G1 X197.216 Y188.925 E3.19767
G1 X197.294 Y189.718 E3.22417
G1 X196.25 Y189.719 E3.2589
G0 F6000 X196.536 Y189.464
;TYPE:SKIN
G1 F1154.1 X196.69 Y189.336 E3.26637
G1 X197.04 Y189.12 E3.28173
G0 F6000 X196.764 Y189.45
G1 F2700 E-1.71827
G0 F6000 X197.169 Y189.605
G0 X197.167 Y190.403
G0 X197.203 Y190.918
G0 X197.419 Y191.083
;TYPE:WALL-OUTER
G1 F2700 E3.28173
G1 F1154.1 X196.137 Y191.084 E3.32437
G1 X196.198 Y190.283 E3.35109
G1 X197.348 Y190.284 E3.38934
G1 X197.419 Y191.083 E3.41602
G0 F6000 X197.13 Y190.908
;TYPE:SKIN
G1 F1154.1 X196.681 Y190.458 E3.42659
G0 F6000 X197.086 Y190.58
G1 F1154.1 X196.622 Y190.683 E3.44159
G1 X196.453 Y190.796 E3.448
G0 F6000 X196.566 Y190.783
G0 X196.454 Y190.983
G0 X196.454 Y191.87
G0 X196.455 Y192.05
;TYPE:WALL-INNER
G1 F1154.1 X197.091 Y192.05 E3.46915
G1 X197.117 Y192.388 E3.48043
G1 X197.11 Y192.459 E3.4828
G1 X196.437 Y192.458 E3.50518
G1 X196.43 Y192.399 E3.50716
G1 X196.455 Y192.05 E3.5188
G0 F6000 X196.082 Y191.65
;TYPE:WALL-OUTER
G1 F1154.1 X197.462 Y191.65 E3.5647
G1 X197.519 Y192.391 E3.58941
G1 X197.502 Y192.562 E3.59513
G1 X197.454 Y192.719 E3.60059
G1 X197.417 Y192.786 E3.60314
G1 X197.391 Y192.819 E3.60453
G1 X197.347 Y192.851 E3.60634
G1 X197.307 Y192.86 E3.60771
G1 X196.216 Y192.857 E3.64399
G1 X196.184 Y192.845 E3.64513
G1 X196.145 Y192.809 E3.6469
G1 X196.113 Y192.76 E3.64884
G1 X196.082 Y192.695 E3.65124
G1 X196.051 Y192.592 E3.65482
G1 X196.028 Y192.411 E3.66088
G1 X196.082 Y191.65 E3.68626
G0 F6000 X196.54 Y192.25
G1 F2700 E-1.31374
;MESH:NONMESH
G0 F300 X196.54 Y192.25 Z0.4
G0 F6000 X196.296 Y192.641
G0 X197.115 Y193.713
G0 X197.517 Y193.704
G0 X197.857 Y193.558
G0 X198.138 Y193.268
G0 X198.354 Y192.731
G0 X198.349 Y191.934
G0 X197.988 Y188.071
G0 X192.011 Y188.074
G0 X191.614 Y192.431
G0 X191.711 Y192.832
G0 X192.886 Y196.926
G0 X193.819 Y198.004
G0 X193.668 Y198.938
;TIME_ELAPSED:20.286712
;LAYER:1
M117 Lil_Corg_v 2/50
M140 S50
M106 S85
;TYPE:WALL-INNER
;MESH:Lil_Corg_v2.stl
G1 F2700 E3.68626
G1 F923.8 X193.228 Y198.939 E3.70089
G1 X192.786 Y198.938 E3.71559
G1 X192.737 Y198.543 E3.72883
G1 X192.745 Y198.158 E3.74164
G1 X192.753 Y198.072 E3.74451
G1 X192.776 Y197.982 E3.7476
G1 X193.518 Y197.979 E3.77228
G1 X193.718 Y197.979 E3.77893
G1 X193.718 Y198.179 E3.78324
G1 X193.718 Y198.522 E3.79465
G1 X193.668 Y198.938 E3.80859
G1 F2700 E-1.19141
G0 F7500 X193.554 Y199.11
G0 X193.212 Y200.461
G0 X193.232 Y201.483
G0 X193.487 Y201.52
G0 X193.787 Y201.253
;TYPE:WALL-OUTER
G1 F2700 E3.80859
G1 F923.8 X193.693 Y202.02 E3.83429
G1 X192.761 Y202.021 E3.86528
G1 X192.667 Y201.253 E3.89102
G1 X192.997 Y201.254 E3.902
G1 X193.014 Y200.688 E3.92083
G1 X192.598 Y200.688 E3.93467
G1 X192.502 Y199.902 E3.961
G1 X192.816 Y199.901 E3.97145
G1 X193.04 Y199.91 E3.9789
G1 X193.065 Y199.338 E3.99794
G1 X192.432 Y199.337 E4.019
G1 X192.336 Y198.563 E4.04494
G1 X192.345 Y198.135 E4.05918
G1 X192.358 Y198.004 E4.06356
G1 X192.407 Y197.808 E4.07028
G1 X192.449 Y197.728 E4.07328
G1 X192.516 Y197.646 E4.0768
G1 X192.564 Y197.611 E4.07878
G1 X192.625 Y197.587 E4.08096
G1 X192.657 Y197.582 E4.08204
G1 X193.866 Y197.579 E4.12225
G1 X193.906 Y197.584 E4.12359
G1 X194.006 Y197.629 E4.12724
G1 X194.084 Y197.714 E4.13107
G1 X194.109 Y197.768 E4.13305
G1 X194.118 Y197.832 E4.1352
G1 X194.118 Y198.545 E4.15892
G1 X194.023 Y199.337 E4.18545
G1 X193.39 Y199.338 E4.2065
