;FLAVOR:Marlin
;TIME:163
;Filament used: 0.0429985m
;Layer height: 0.2
;MINX:192.7
;MINY:192.7
;MINZ:0.2
;MAXX:197.3
;MAXY:197.3
;MAXZ:5
;POSTPROCESSED
;Generated with Cura_SteamEngine 4.7.0
M140 S50
M105
M190 S50
M104 S200
M105
M109 S200
M82 ;absolute extrusion mode
M201 X500.00 Y500.00 Z100.00 E5000.00 ;Setup machine max acceleration
M203 X500.00 Y500.00 Z10.00 E50.00 ;Setup machine max feedrate
M204 P500.00 R1000.00 T500.00 ;Setup Print/Retract/Travel acceleration
M205 X8.00 Y8.00 Z0.40 E5.00 ;Setup Jerk
M220 S100 ;Reset Feedrate
M221 S100 ;Reset Flowrate

G28 ;Home

G92 E0 ;Reset Extruder
G1 Z2.0 F3000 ;Move Z Axis up
G1 X10.1 Y20 Z0.2 F5000.0 ;Move to start position
G1 X10.1 Y200.0 Z0.2 F1500.0 E15 ;Draw the first line
G1 X10.4 Y200.0 Z0.2 F5000.0 ;Move to side a little
G1 X10.4 Y20 Z0.2 F1500.0 E30 ;Draw the second line
G92 E0 ;Reset Extruder
G1 Z2.0 F3000 ;Move Z Axis up
G92 E0
G92 E0
G1 F2700 E-5
;LAYER_COUNT:25
;LAYER:0
M117 cube 1/25
M107
;MESH:cube.stl
G0 F6000 X196.1 Y196.1 Z0.2
;TYPE:WALL-INNER
G1 F2700 E0
G1 F600 X193.9 Y196.1 E0.06548
G1 X193.9 Y193.9 E0.13095
G1 X196.1 Y193.9 E0.19643
G1 X196.1 Y196.1 E0.2619
G0 F6000 X196.5 Y196.5
G1 F600 X193.5 Y196.5 E0.35119
G1 X193.5 Y193.5 E0.44047
G1 X196.5 Y193.5 E0.52976
G1 X196.5 Y196.5 E0.61904
G0 F6000 X196.9 Y196.9
G1 F600 X193.1 Y196.9 E0.73214
G1 X193.1 Y193.1 E0.84523
G1 X196.9 Y193.1 E0.95832
G1 X196.9 Y196.9 E1.07142
G0 F6000 X197.3 Y197.3
;TYPE:WALL-OUTER
G1 F600 X192.7 Y197.3 E1.20832
G1 X192.7 Y192.7 E1.34523
G1 X197.3 Y192.7 E1.48213
G1 X197.3 Y197.3 E1.61903
G0 F6000 X197.03 Y197.03
G0 X195.99 Y195.71
G0 X195.71 Y195.71
;TYPE:SKIN
G1 F600 X194.29 Y195.71 E1.66129
G1 X194.29 Y194.29 E1.70356
G1 X195.71 Y194.29 E1.74582
G1 X195.71 Y195.71 E1.78808
G0 F6000 X195.549 Y194.983
G1 F600 X195.015 Y194.45 E1.81053
G0 F6000 X194.449 Y194.449
G1 F600 X195.549 Y195.549 E1.85683
G0 F6000 X194.983 Y195.548
G1 F600 X194.449 Y195.015 E1.87929
G0 F6000 X193.71 Y195.015
;MESH:NONMESH
G0 F300 X193.71 Y195.015 Z0.4
G0 F6000 X194.082 Y195.918
G0 X196.1 Y196.1
;TIME_ELAPSED:12.387623
;LAYER:1
M117 cube 2/25
M106 S85
;TYPE:WALL-INNER
;MESH:cube.stl
G1 F600 X193.9 Y196.1 E1.94476
G1 X193.9 Y193.9 E2.01024
G1 X196.1 Y193.9 E2.07571
G1 X196.1 Y196.1 E2.14119
G0 F7500 X196.5 Y196.5
G1 F600 X193.5 Y196.5 E2.23047
G1 X193.5 Y193.5 E2.31976
G1 X196.5 Y193.5 E2.40904
G1 X196.5 Y196.5 E2.49833
G0 F7500 X196.9 Y196.9
G1 F600 X193.1 Y196.9 E2.61142
G1 X193.1 Y193.1 E2.72452
G1 X196.9 Y193.1 E2.83761
G1 X196.9 Y196.9 E2.9507
G0 F7500 X197.3 Y197.3
;TYPE:WALL-OUTER
G1 F600 X192.7 Y197.3 E3.08761
G1 X192.7 Y192.7 E3.22451
G1 X197.3 Y192.7 E3.36141
G1 X197.3 Y197.3 E3.49832
G0 F7500 X197.03 Y197.03
G0 X195.99 Y195.71
G0 X195.71 Y195.71
;TYPE:SKIN
G1 F600 X194.29 Y195.71 E3.54058
G1 X194.29 Y194.29 E3.58284
G1 X195.71 Y194.29 E3.6251
G1 X195.71 Y195.71 E3.66736
G0 F7500 X195.548 Y195.339
G1 F600 X195.338 Y195.549 E3.6762
G0 F7500 X194.773 Y195.549
G1 F600 X195.548 Y194.773 E3.70884
G0 F7500 X195.307 Y194.449
G1 F600 X194.45 Y195.307 E3.74494
G0 F7500 X194.45 Y194.741
G1 F600 X194.742 Y194.449 E3.75723
G0 F7500 X194.742 Y193.71
;MESH:NONMESH
G0 F300 X194.742 Y193.71 Z0.6
G0 F7500 X195.918 Y194.082
G0 X196.1 Y196.1
;TIME_ELAPSED:19.571674
;LAYER:2
M117 cube 3/25
M106 S170
;TYPE:WALL-INNER
;MESH:cube.stl
G1 F600 X193.9 Y196.1 E3.8227
G1 X193.9 Y193.9 E3.88818
G1 X196.1 Y193.9 E3.95365
G1 X196.1 Y196.1 E4.01913
G0 F9000 X196.5 Y196.5
G1 F600 X193.5 Y196.5 E4.10841
G1 X193.5 Y193.5 E4.1977
G1 X196.5 Y193.5 E4.28698
G1 X196.5 Y196.5 E4.37627
G0 F9000 X196.9 Y196.9
G1 F600 X193.1 Y196.9 E4.48936
G1 X193.1 Y193.1 E4.60246
G1 X196.9 Y193.1 E4.71555
G1 X196.9 Y196.9 E4.82864
G0 F9000 X197.3 Y197.3
;TYPE:WALL-OUTER
G1 F600 X192.7 Y197.3 E4.96555
G1 X192.7 Y192.7 E5.10245
G1 X197.3 Y192.7 E5.23935
G1 X197.3 Y197.3 E5.37626
G0 F9000 X197.03 Y197.03
G0 X195.99 Y195.71
G0 X195.71 Y195.71
;TYPE:SKIN
G1 F600 X194.29 Y195.71 E5.41852
G1 X194.29 Y194.29 E5.46078
G1 X195.71 Y194.29 E5.50304
G1 X195.71 Y195.71 E5.5453
G0 F9000 X195.549 Y194.983
G1 F600 X195.015 Y194.45 E5.56776
G0 F9000 X194.449 Y194.449
G1 F600 X195.549 Y195.549 E5.61406
G0 F9000 X194.983 Y195.548
G1 F600 X194.449 Y195.015 E5.63651
G0 F9000 X193.71 Y195.015
;MESH:NONMESH
G0 F300 X193.71 Y195.015 Z0.8
G0 F9000 X194.082 Y195.918
G0 X196.1 Y196.1
;TIME_ELAPSED:26.720271
;LAYER:3
M117 cube 4/25
M106 S255
;TYPE:WALL-INNER
;MESH:cube.stl
G1 F600 X193.9 Y196.1 E5.70199
G1 X193.9 Y193.9 E5.76746
G1 X196.1 Y193.9 E5.83294
G1 X196.1 Y196.1 E5.89841
G0 F9000 X196.5 Y196.5
G1 F600 X193.5 Y196.5 E5.9877
G1 X193.5 Y193.5 E6.07698
G1 X196.5 Y193.5 E6.16627
G1 X196.5 Y196.5 E6.25555
G0 F9000 X196.9 Y196.9
G1 F600 X193.1 Y196.9 E6.36865
G1 X193.1 Y193.1 E6.48174
G1 X196.9 Y193.1 E6.59484
G1 X196.9 Y196.9 E6.70793
G0 F9000 X197.3 Y197.3
;TYPE:WALL-OUTER
G1 F600 X192.7 Y197.3 E6.84483
G1 X192.7 Y192.7 E6.98174
G1 X197.3 Y192.7 E7.11864
G1 X197.3 Y197.3 E7.25554
G0 F9000 X197.03 Y197.03
G0 X195.99 Y195.71
G0 X195.71 Y195.71
;TYPE:SKIN
G1 F600 X194.29 Y195.71 E7.29781
G1 X194.29 Y194.29 E7.34007
G1 X195.71 Y194.29 E7.38233
G1 X195.71 Y195.71 E7.42459
G0 F9000 X195.548 Y195.339
G1 F600 X195.338 Y195.549 E7.43343
G0 F9000 X194.773 Y195.549
G1 F600 X195.548 Y194.773 E7.46607
G0 F9000 X195.307 Y194.449
G1 F600 X194.45 Y195.307 E7.50216
G0 F9000 X194.45 Y194.741
G1 F600 X194.742 Y194.449 E7.51445
G0 F9000 X194.742 Y193.71
;MESH:NONMESH
G0 F300 X194.742 Y193.71 Z1
G0 F9000 X195.918 Y194.082
G0 X196.1 Y196.1
;TIME_ELAPSED:33.908651
;LAYER:4
M117 cube 5/25
;TYPE:WALL-INNER
;MESH:cube.stl
G1 F600 X193.9 Y196.1 E7.57993
G1 X193.9 Y193.9 E7.6454
G1 X196.1 Y193.9 E7.71088
G1 X196.1 Y196.1 E7.77635
G0 F9000 X196.5 Y196.5
G1 F600 X193.5 Y196.5 E7.86564
G1 X193.5 Y193.5 E7.95492
G1 X196.5 Y193.5 E8.04421
G1 X196.5 Y196.5 E8.13349
G0 F9000 X196.9 Y196.9
G1 F600 X193.1 Y196.9 E8.24659
G1 X193.1 Y193.1 E8.35968
G1 X196.9 Y193.1 E8.47277
G1 X196.9 Y196.9 E8.58587
G0 F9000 X197.3 Y197.3
;TYPE:WALL-OUTER
G1 F600 X192.7 Y197.3 E8.72277
G1 X192.7 Y192.7 E8.85968
G1 X197.3 Y192.7 E8.99658
G1 X197.3 Y197.3 E9.13348
G0 F9000 X197.03 Y197.03
G0 X196.019 Y195.458
;TYPE:FILL
G1 F1200 X193.979 Y196.005 E9.19634
G0 F9000 X193.994 Y196.02
G1 F1200 X194.541 Y193.978 E9.25926
G0 F9000 X194.979 Y193.979
G1 F1200 X196.019 Y195.02 E9.30305
;MESH:NONMESH
G0 F300 X196.019 Y195.02 Z1.2
G0 F9000 X196.1 Y196.1
;TIME_ELAPSED:40.235742
;LAYER:5
M117 cube 6/25
;TYPE:WALL-INNER
;MESH:cube.stl
G1 F600 X193.9 Y196.1 E9.36853
G1 X193.9 Y193.9 E9.434
G1 X196.1 Y193.9 E9.49948
G1 X196.1 Y196.1 E9.56495
G0 F9000 X196.5 Y196.5
G1 F600 X193.5 Y196.5 E9.65424
G1 X193.5 Y193.5 E9.74352
G1 X196.5 Y193.5 E9.83281
G1 X196.5 Y196.5 E9.92209
G0 F9000 X196.9 Y196.9
G1 F600 X193.1 Y196.9 E10.03519
G1 X193.1 Y193.1 E10.14828
G1 X196.9 Y193.1 E10.26138
G1 X196.9 Y196.9 E10.37447
G0 F9000 X197.3 Y197.3
;TYPE:WALL-OUTER
G1 F600 X192.7 Y197.3 E10.51137
G1 X192.7 Y192.7 E10.64828
G1 X197.3 Y192.7 E10.78518
G1 X197.3 Y197.3 E10.92208
G0 F9000 X197.03 Y197.03
G0 X196.019 Y195.604
;TYPE:FILL
G1 F1200 X194.47 Y196.019 E10.96981
G0 F9000 X193.98 Y195.528
G1 F1200 X194.395 Y193.978 E11.01757
G0 F9000 X195.179 Y193.979
G1 F1200 X196.019 Y194.82 E11.05294
;MESH:NONMESH
G0 F300 X196.019 Y194.82 Z1.4
G0 F9000 X196.1 Y196.1
;TIME_ELAPSED:46.562444
;LAYER:6
M117 cube 7/25
;TYPE:WALL-INNER
;MESH:cube.stl
G1 F600 X193.9 Y196.1 E11.11842
G1 X193.9 Y193.9 E11.18389
G1 X196.1 Y193.9 E11.24937
G1 X196.1 Y196.1 E11.31484
G0 F9000 X196.5 Y196.5
G1 F600 X193.5 Y196.5 E11.40413
G1 X193.5 Y193.5 E11.49341
G1 X196.5 Y193.5 E11.5827
G1 X196.5 Y196.5 E11.67198
G0 F9000 X196.9 Y196.9
G1 F600 X193.1 Y196.9 E11.78508
G1 X193.1 Y193.1 E11.89817
G1 X196.9 Y193.1 E12.01127
G1 X196.9 Y196.9 E12.12436
G0 F9000 X197.3 Y197.3
;TYPE:WALL-OUTER
G1 F600 X192.7 Y197.3 E12.26126
G1 X192.7 Y192.7 E12.39817
G1 X197.3 Y192.7 E12.53507
G1 X197.3 Y197.3 E12.67197
G0 F9000 X197.03 Y197.03
G0 X196.019 Y195.75
;TYPE:FILL
G1 F1200 X195.014 Y196.019 E12.70294
G0 F9000 X193.98 Y194.983
G1 F1200 X194.249 Y193.979 E12.73387
G0 F9000 X195.378 Y193.979
G1 F1200 X196.019 Y194.621 E12.76087
;MESH:NONMESH
G0 F300 X196.019 Y194.621 Z1.6
G0 F9000 X196.1 Y196.1
;TIME_ELAPSED:52.869508
;LAYER:7
M117 cube 8/25
;TYPE:WALL-INNER
;MESH:cube.stl
G1 F600 X193.9 Y196.1 E12.82635
G1 X193.9 Y193.9 E12.89182
G1 X196.1 Y193.9 E12.9573
G1 X196.1 Y196.1 E13.02277
G0 F9000 X196.5 Y196.5
G1 F600 X193.5 Y196.5 E13.11206
G1 X193.5 Y193.5 E13.20134
G1 X196.5 Y193.5 E13.29063
G1 X196.5 Y196.5 E13.37991
G0 F9000 X196.9 Y196.9
G1 F600 X193.1 Y196.9 E13.49301
G1 X193.1 Y193.1 E13.6061
G1 X196.9 Y193.1 E13.7192
G1 X196.9 Y196.9 E13.83229
G0 F9000 X197.3 Y197.3
;TYPE:WALL-OUTER
G1 F600 X192.7 Y197.3 E13.96919
G1 X192.7 Y192.7 E14.1061
G1 X197.3 Y192.7 E14.243
G1 X197.3 Y197.3 E14.3799
G0 F9000 X197.03 Y197.03
G0 X196.019 Y195.897
;TYPE:FILL
G1 F1200 X195.563 Y196.019 E14.39395
G0 F9000 X196.019 Y194.42
G1 F1200 X195.579 Y193.979 E14.41249
G0 F9000 X194.102 Y193.979
G1 F1200 X193.98 Y194.434 E14.42651
;MESH:NONMESH
G0 F300 X193.98 Y194.434 Z1.8
G0 F9000 X196.1 Y196.1
;TIME_ELAPSED:59.158403
;LAYER:8
M117 cube 9/25
;TYPE:WALL-INNER
;MESH:cube.stl
G1 F600 X193.9 Y196.1 E14.49199
G1 X193.9 Y193.9 E14.55746
G1 X196.1 Y193.9 E14.62294
G1 X196.1 Y196.1 E14.68842
G0 F9000 X196.5 Y196.5
G1 F600 X193.5 Y196.5 E14.7777
G1 X193.5 Y193.5 E14.86699
G1 X196.5 Y193.5 E14.95627
G1 X196.5 Y196.5 E15.04556
G0 F9000 X196.9 Y196.9
G1 F600 X193.1 Y196.9 E15.15865
G1 X193.1 Y193.1 E15.27174
G1 X196.9 Y193.1 E15.38484
G1 X196.9 Y196.9 E15.49793
G0 F9000 X197.3 Y197.3
;TYPE:WALL-OUTER
G1 F600 X192.7 Y197.3 E15.63484
G1 X192.7 Y192.7 E15.77174
G1 X197.3 Y192.7 E15.90864
G1 X197.3 Y197.3 E16.04555
G0 F9000 X197.03 Y197.03
G0 X196.019 Y194.221
;TYPE:FILL
G1 F1200 X195.778 Y193.979 E16.05571
;MESH:NONMESH
G0 F300 X195.778 Y193.979 Z2
G0 F9000 X196.1 Y196.1
;TIME_ELAPSED:65.178734
;LAYER:9
M117 cube 10/25
;TYPE:WALL-INNER
;MESH:cube.stl
G1 F600 X193.9 Y196.1 E16.12119
G1 X193.9 Y193.9 E16.18666
G1 X196.1 Y193.9 E16.25214
G1 X196.1 Y196.1 E16.31761
G0 F9000 X196.5 Y196.5
G1 F600 X193.5 Y196.5 E16.4069
G1 X193.5 Y193.5 E16.49618
G1 X196.5 Y193.5 E16.58547
G1 X196.5 Y196.5 E16.67475
G0 F9000 X196.9 Y196.9
G1 F600 X193.1 Y196.9 E16.78785
G1 X193.1 Y193.1 E16.90094
G1 X196.9 Y193.1 E17.01403
G1 X196.9 Y196.9 E17.12713
G0 F9000 X197.3 Y197.3
;TYPE:WALL-OUTER
G1 F600 X192.7 Y197.3 E17.26403
G1 X192.7 Y192.7 E17.40094
G1 X197.3 Y192.7 E17.53784
G1 X197.3 Y197.3 E17.67474
G0 F9000 X196.7 Y196.818
;MESH:NONMESH
G0 F300 X196.7 Y196.818 Z2.2
G0 F9000 X196.1 Y196.1
;TIME_ELAPSED:71.025852
;LAYER:10
M117 cube 11/25
;TYPE:WALL-INNER
;MESH:cube.stl
G1 F600 X193.9 Y196.1 E17.74022
G1 X193.9 Y193.9 E17.80569
G1 X196.1 Y193.9 E17.87117
G1 X196.1 Y196.1 E17.93665
G0 F9000 X196.5 Y196.5
G1 F600 X193.5 Y196.5 E18.02593
G1 X193.5 Y193.5 E18.11521
G1 X196.5 Y193.5 E18.2045
G1 X196.5 Y196.5 E18.29378
G0 F9000 X196.9 Y196.9
G1 F600 X193.1 Y196.9 E18.40688
G1 X193.1 Y193.1 E18.51997
G1 X196.9 Y193.1 E18.63307
G1 X196.9 Y196.9 E18.74616
G0 F9000 X197.3 Y197.3
;TYPE:WALL-OUTER
G1 F600 X192.7 Y197.3 E18.88306
G1 X192.7 Y192.7 E19.01997
G1 X197.3 Y192.7 E19.15687
G1 X197.3 Y197.3 E19.29378
G0 F9000 X196.7 Y196.818
;MESH:NONMESH
G0 F300 X196.7 Y196.818 Z2.4
G0 F9000 X196.1 Y196.1
;TIME_ELAPSED:76.872971
;LAYER:11
M117 cube 12/25
;TYPE:WALL-INNER
;MESH:cube.stl
G1 F600 X193.9 Y196.1 E19.35925
G1 X193.9 Y193.9 E19.42473
G1 X196.1 Y193.9 E19.4902
G1 X196.1 Y196.1 E19.55568
G0 F9000 X196.5 Y196.5
G1 F600 X193.5 Y196.5 E19.64496
G1 X193.5 Y193.5 E19.73425
G1 X196.5 Y193.5 E19.82353
G1 X196.5 Y196.5 E19.91282
G0 F9000 X196.9 Y196.9
G1 F600 X193.1 Y196.9 E20.02591
G1 X193.1 Y193.1 E20.13901
G1 X196.9 Y193.1 E20.2521
G1 X196.9 Y196.9 E20.36519
G0 F9000 X197.3 Y197.3
;TYPE:WALL-OUTER
G1 F600 X192.7 Y197.3 E20.5021
G1 X192.7 Y192.7 E20.639
G1 X197.3 Y192.7 E20.7759
G1 X197.3 Y197.3 E20.91281
G0 F9000 X196.7 Y196.818
;MESH:NONMESH
G0 F300 X196.7 Y196.818 Z2.6
G0 F9000 X196.1 Y196.1
;TIME_ELAPSED:82.720090
;LAYER:12
M117 cube 13/25
;TYPE:WALL-INNER
;MESH:cube.stl
G1 F600 X193.9 Y196.1 E20.97828
G1 X193.9 Y193.9 E21.04376
G1 X196.1 Y193.9 E21.10923
G1 X196.1 Y196.1 E21.17471
G0 F9000 X196.5 Y196.5
G1 F600 X193.5 Y196.5 E21.26399
G1 X193.5 Y193.5 E21.35328
G1 X196.5 Y193.5 E21.44256
G1 X196.5 Y196.5 E21.53185
G0 F9000 X196.9 Y196.9
G1 F600 X193.1 Y196.9 E21.64494
G1 X193.1 Y193.1 E21.75804
G1 X196.9 Y193.1 E21.87113
G1 X196.9 Y196.9 E21.98423
G0 F9000 X197.3 Y197.3
;TYPE:WALL-OUTER
G1 F600 X192.7 Y197.3 E22.12113
G1 X192.7 Y192.7 E22.25803
G1 X197.3 Y192.7 E22.39494
G1 X197.3 Y197.3 E22.53184
G0 F9000 X196.7 Y196.818
;MESH:NONMESH
G0 F300 X196.7 Y196.818 Z2.8
G0 F9000 X196.1 Y196.1
;TIME_ELAPSED:88.567208
;LAYER:13
M117 cube 14/25
;TYPE:WALL-INNER
;MESH:cube.stl
G1 F600 X193.9 Y196.1 E22.59732
G1 X193.9 Y193.9 E22.66279
G1 X196.1 Y193.9 E22.72827
G1 X196.1 Y196.1 E22.79374
G0 F9000 X196.5 Y196.5
G1 F600 X193.5 Y196.5 E22.88303
G1 X193.5 Y193.5 E22.97231
G1 X196.5 Y193.5 E23.0616
G1 X196.5 Y196.5 E23.15088
G0 F9000 X196.9 Y196.9
G1 F600 X193.1 Y196.9 E23.26398
G1 X193.1 Y193.1 E23.37707
G1 X196.9 Y193.1 E23.49016
G1 X196.9 Y196.9 E23.60326
G0 F9000 X197.3 Y197.3
;TYPE:WALL-OUTER
G1 F600 X192.7 Y197.3 E23.74016
G1 X192.7 Y192.7 E23.87707
G1 X197.3 Y192.7 E24.01397
G1 X197.3 Y197.3 E24.15087
G0 F9000 X196.7 Y196.818
;MESH:NONMESH
G0 F300 X196.7 Y196.818 Z3
G0 F9000 X196.1 Y196.1
;TIME_ELAPSED:94.414327
;LAYER:14
M117 cube 15/25
;TYPE:WALL-INNER
;MESH:cube.stl
G1 F600 X193.9 Y196.1 E24.21635
G1 X193.9 Y193.9 E24.28182
G1 X196.1 Y193.9 E24.3473
G1 X196.1 Y196.1 E24.41277
G0 F9000 X196.5 Y196.5
G1 F600 X193.5 Y196.5 E24.50206
G1 X193.5 Y193.5 E24.59134
G1 X196.5 Y193.5 E24.68063
G1 X196.5 Y196.5 E24.76991
G0 F9000 X196.9 Y196.9
G1 F600 X193.1 Y196.9 E24.88301
G1 X193.1 Y193.1 E24.9961
G1 X196.9 Y193.1 E25.1092
G1 X196.9 Y196.9 E25.22229
G0 F9000 X197.3 Y197.3
;TYPE:WALL-OUTER
G1 F600 X192.7 Y197.3 E25.35919
G1 X192.7 Y192.7 E25.4961
G1 X197.3 Y192.7 E25.633
G1 X197.3 Y197.3 E25.7699
G0 F9000 X196.7 Y196.818
;MESH:NONMESH
G0 F300 X196.7 Y196.818 Z3.2
G0 F9000 X196.1 Y196.1
;TIME_ELAPSED:100.261445
;LAYER:15
M117 cube 16/25
;TYPE:WALL-INNER
;MESH:cube.stl
G1 F600 X193.9 Y196.1 E25.83538
G1 X193.9 Y193.9 E25.90086
G1 X196.1 Y193.9 E25.96633
G1 X196.1 Y196.1 E26.03181
G0 F9000 X196.5 Y196.5
G1 F600 X193.5 Y196.5 E26.12109
G1 X193.5 Y193.5 E26.21038
G1 X196.5 Y193.5 E26.29966
G1 X196.5 Y196.5 E26.38895
G0 F9000 X196.9 Y196.9
G1 F600 X193.1 Y196.9 E26.50204
G1 X193.1 Y193.1 E26.61514
G1 X196.9 Y193.1 E26.72823
G1 X196.9 Y196.9 E26.84132
G0 F9000 X197.3 Y197.3
;TYPE:WALL-OUTER
G1 F600 X192.7 Y197.3 E26.97823
G1 X192.7 Y192.7 E27.11513
G1 X197.3 Y192.7 E27.25203
G1 X197.3 Y197.3 E27.38894
G0 F9000 X196.7 Y196.818
;MESH:NONMESH
G0 F300 X196.7 Y196.818 Z3.4
G0 F9000 X196.1 Y196.1
;TIME_ELAPSED:106.108564
;LAYER:16
M117 cube 17/25
;TYPE:WALL-INNER
;MESH:cube.stl
G1 F600 X193.9 Y196.1 E27.45441
G1 X193.9 Y193.9 E27.51989
G1 X196.1 Y193.9 E27.58536
G1 X196.1 Y196.1 E27.65084
G0 F9000 X196.5 Y196.5
G1 F600 X193.5 Y196.5 E27.74012
G1 X193.5 Y193.5 E27.82941
G1 X196.5 Y193.5 E27.91869
G1 X196.5 Y196.5 E28.00798
G0 F9000 X196.9 Y196.9
G1 F600 X193.1 Y196.9 E28.12107
G1 X193.1 Y193.1 E28.23417
G1 X196.9 Y193.1 E28.34726
G1 X196.9 Y196.9 E28.46036
G0 F9000 X197.3 Y197.3
;TYPE:WALL-OUTER
G1 F600 X192.7 Y197.3 E28.59726
G1 X192.7 Y192.7 E28.73416
G1 X197.3 Y192.7 E28.87107
G1 X197.3 Y197.3 E29.00797
G0 F9000 X196.7 Y196.818
;MESH:NONMESH
G0 F300 X196.7 Y196.818 Z3.6
G0 F9000 X196.1 Y196.1
;TIME_ELAPSED:111.955683
;LAYER:17
M117 cube 18/25
;TYPE:WALL-INNER
;MESH:cube.stl
G1 F600 X193.9 Y196.1 E29.07345
G1 X193.9 Y193.9 E29.13892
G1 X196.1 Y193.9 E29.2044
G1 X196.1 Y196.1 E29.26987
G0 F9000 X196.5 Y196.5
G1 F600 X193.5 Y196.5 E29.35916
G1 X193.5 Y193.5 E29.44844
G1 X196.5 Y193.5 E29.53773
G1 X196.5 Y196.5 E29.62701
G0 F9000 X196.9 Y196.9
G1 F600 X193.1 Y196.9 E29.74011
G1 X193.1 Y193.1 E29.8532
G1 X196.9 Y193.1 E29.96629
G1 X196.9 Y196.9 E30.07939
G0 F9000 X197.3 Y197.3
;TYPE:WALL-OUTER
